woocommerce-payments/assets/images/payment-methods/affirm-icon.svg

<svg width="32" height="20" viewBox="0 0 32 20" fill="none" xmlns="http://www.w3.org/2000/svg">
<rect x="0.5" y="0.5" width="31" height="19" rx="1.5" fill="white"/>
<g clip-path="url(#clip0_2727_123472)">
<path d="M10.6166 15.6557C9.98087 14.6852 9.61936 13.5609 9.57035 12.4018C9.52134 11.2426 9.78665 10.0918 10.3382 9.07111C10.8898 8.05043 11.707 7.19787 12.7035 6.60369C13.7 6.0095 14.8386 5.69581 15.9988 5.69581C17.1589 5.69581 18.2975 6.0095 19.294 6.60369C20.2905 7.19787 21.1077 8.05043 21.6593 9.07111C22.2109 10.0918 22.4762 11.2426 22.4272 12.4018C22.3782 13.5609 22.0166 14.6852 21.3809 15.6557H23.1823C23.7806 14.436 24.0585 13.0841 23.9897 11.7273C23.9209 10.3706 23.5078 9.05364 22.7892 7.90073C22.0706 6.74782 21.0703 5.79689 19.8824 5.13758C18.6946 4.47828 17.3585 4.13232 16 4.13232C14.6415 4.13232 13.3053 4.47828 12.1175 5.13758C10.9297 5.79689 9.92935 6.74782 9.21076 7.90073C8.49218 9.05364 8.07903 10.3706 8.01026 11.7273C7.94149 13.0841 8.21936 14.436 8.81769 15.6557H10.6166Z" fill="#4A4AF4"/>
<path d="M16.1081 8.33398C14.9365 8.33398 13.5879 8.88684 12.8556 9.47021L13.5232 10.8774C14.1103 10.3404 15.0598 9.8815 15.9153 9.8815C16.7293 9.8815 17.1772 10.1524 17.1772 10.7016C17.1772 11.0678 16.8794 11.2777 16.3168 11.3289C14.2067 11.523 12.5664 12.1832 12.5664 13.8028C12.5664 15.0879 13.4927 15.8641 15.017 15.8641C15.4753 15.8647 15.9254 15.7433 16.3212 15.5122C16.7169 15.2812 17.044 14.949 17.2688 14.5497V15.6542H19.1702V11.0238C19.1702 9.1114 17.8399 8.33887 16.1081 8.33887V8.33398ZM15.5528 14.3788C14.9426 14.3788 14.5997 14.1152 14.5997 13.6832C14.5997 12.78 15.6981 12.5628 17.1382 12.5628C17.1382 13.5074 16.506 14.3788 15.5516 14.3788H15.5528Z" fill="#060809"/>
</g>
<rect x="0.5" y="0.5" width="31" height="19" rx="1.5" stroke="#DDDDDD"/>
<defs>
<clipPath id="clip0_2727_123472">
<rect width="15.9999" height="11.7284" fill="white" transform="translate(8 4.13574)"/>
</clipPath>
</defs>
</svg>

<svg width="32" height="20" fill="none" xmlns="http://www.w3.org/2000/svg"><rect x=".5" y=".5" width="31" height="19" rx="1.5" fill="#fff"/><g clip-path="url(#a)"><path d="M10.617 15.656a6.434 6.434 0 1 1 10.764 0h1.801a8 8 0 1 0-14.364 0h1.799Z" fill="#4A4AF4"/><path d="M16.108 8.334c-1.171 0-2.52.553-3.252 1.136l.667 1.407c.587-.537 1.537-.995 2.392-.995.814 0 1.262.27 1.262.82 0 .366-.298.576-.86.627-2.11.194-3.75.854-3.75 2.474 0 1.285.926 2.061 2.45 2.061a2.58 2.58 0 0 0 2.252-1.314v1.104h1.901v-4.63c0-1.913-1.33-2.685-3.062-2.685v-.005Zm-.555 6.045c-.61 0-.953-.264-.953-.696 0-.903 1.098-1.12 2.538-1.12 0 .944-.632 1.816-1.586 1.816Z" fill="#060809"/></g><rect x=".5" y=".5" width="31" height="19" rx="1.5" stroke="#DDD"/><defs><clipPath id="a"><path fill="#fff" d="M8 4.136h16v11.728H8z"/></clipPath></defs></svg>
